X:657
T: "Der geschlagene Mann"
N: Z1338
O: Europa, Mitteleuropa, Oesterreich
R: Zech -, Schalks - Lied
M: 3/8
L: 1/16
K: F
FFFFF2 | EEGEC2 |
F2A2cf | c4z2 |
BBddB2 | A2c2F2 |
E2GGC2 | F2A2C2 |
E2EdcE | F4z2

@@@ Tune index: 10415
